X: 10942
Q: "Quadrille."
M: 2/4
L: 1/16
K: F
c2 |\
f2g2a2b2 | {ga}g2^f2{ga}g2f2 | {ga}g2^f2g2a2 | {g}fefg f2c2 |\
f2g2a2b2 | {ga}g2^f2{ga}g2f2 | {ga}g2^f2g2a2 | f2f2f2 |]
cfef gfaf | ed^cd cdfd | c2b2a2g2 | {g}fefg f2AB |\
cfef gfaf | ed^cd cdfd | c2b2a2g2 | f2f2"^Fin."f2 H|]
[K:Fm] "Minore."c2 |\


